local/share/icons/dracula-icons-main/symbolic/actions/align-horizontal-right-symbolic.svg

<?xml version="1.0" encoding="UTF-8"?>
<svg xmlns="http://www.w3.org/2000/svg" xmlns:xlink="http://www.w3.org/1999/xlink" width="16" height="16" viewBox="0 0 16 16">
<defs>
<filter id="filter-remove-color" x="0%" y="0%" width="100%" height="100%">
<feColorMatrix color-interpolation-filters="sRGB" values="0 0 0 0 1 0 0 0 0 1 0 0 0 0 1 0 0 0 1 0" />
</filter>
<mask id="mask-0">
<g filter="url(#filter-remove-color)">
<rect x="-1.6" y="-1.6" width="19.2" height="19.2" fill="rgb(0%, 0%, 0%)" fill-opacity="0.1"/>
</g>
</mask>
<clipPath id="clip-0">
<rect x="0" y="0" width="5" height="5"/>
</clipPath>
<g id="source-14082" clip-path="url(#clip-0)">
<path fill-rule="nonzero" fill="rgb(21.176471%, 21.176471%, 21.176471%)" fill-opacity="0.931" d="M 3.703125 1.058594 L 3.703125 1.851562 L 1.585938 1.851562 L 1.585938 1.058594 Z M 3.703125 2.644531 L 3.703125 3.441406 L 0.792969 3.441406 L 0.792969 2.644531 Z M 3.703125 2.644531 "/>
</g>
</defs>
<path fill-rule="nonzero" fill="rgb(21.176471%, 21.176471%, 21.176471%)" fill-opacity="1" d="M 3.96875 0 L 3.96875 4.234375 L 3.4375 4.234375 L 3.4375 3.703125 L 0.660156 3.703125 C 0.589844 3.703125 0.53125 3.644531 0.53125 3.570312 L 0.53125 2.515625 C 0.53125 2.441406 0.589844 2.382812 0.660156 2.382812 L 3.441406 2.382812 L 3.441406 2.117188 L 1.453125 2.117188 C 1.417969 2.117188 1.386719 2.101562 1.359375 2.078125 C 1.335938 2.054688 1.324219 2.019531 1.324219 1.984375 L 1.324219 0.925781 C 1.324219 0.851562 1.382812 0.792969 1.453125 0.792969 L 3.441406 0.792969 L 3.441406 0 Z M 3.4375 1.058594 L 1.589844 1.058594 L 1.589844 1.851562 L 3.441406 1.851562 Z M 3.4375 2.644531 L 0.796875 2.644531 L 0.796875 3.441406 L 3.441406 3.441406 Z M 3.4375 2.644531 "/>
<g mask="url(#mask-0)">
<use xlink:href="#source-14082"/>
</g>
</svg>

<svg xmlns="http://www.w3.org/2000/svg" width="16" height="16" viewBox="0 0 4.233 4.233"><path d="M3.969 0v4.233h-.53v-.529H.662a.132.132 0 0 1-.132-.132V2.514c0-.074.06-.133.132-.133H3.44v-.264H1.455a.132.132 0 0 1-.132-.133V.926c0-.073.059-.132.132-.132H3.44V0zm-.53 1.058H1.588v.794H3.44zm0 1.588H.795v.794H3.44z" style="marker:none" fill="#363636"/><path d="M3.704 1.058v.794H1.587v-.794zm0 1.588v.794H.794v-.794z" opacity=".1" fill="#363636" fill-opacity=".931"/></svg>
